!!!OTL: 486. Die Verlassſenen.
!!!ARE: Europa, Mitteleuropa, Deutschland, Wetzlar, Schwalbach
!!!SCT: B0486
!!!TXL: @@DE
!!!YEM: Copyright 1995, estate of Helmut Schaffrath.
**kern	**text
*ICvox	*
*Ivox	*
*clefG2	*
*M6/8	*
*k[b-e-]	*
*B-:	*
!LO:TX:a:t=Schwermüthig.	!
{8f	Ma-
=1	=1
8.d	-ri-
16d	-e
8d	ſaß
8g	trau-
8g	-rig
8g	im
=2	=2
8f	Gar-
4f	-ten,
4r}	.
{8f	im
=3	=3
8.d	Gra-
16d	-ſe
8d	lag
8f	ſchlummernd
8f	.
8f	ihr
=4	=4
4.e-	Kind.
4r}	.
{8f	Mit
=5	=5
8.f	ih-
16f	-ren
8f	ſchwarʒ-
[8f	-brau-
8f]	.
8f	-nen
=6	=6
8g	Lo-
4g	-cken
4r}	.
{8g	ſpielt'
=7	=7
8.e-	lei-
16e-	-ſe
8e-	der
4g	A-
8g	-bend-
=8	=8
4.f	-wind.
4r}	.
{8f	Sie
=9	=9
4d	ſaß
8f	ſo
4dd	ſtill,
8cc	ſo
=10	=10
8cc	träumend,
4b-	.
4r}	.
{8b-	ſo
=11	=11
4b-	ein-
8b-	-ſam
4a	und
8b-	ſo
=12	=12
4.cc	bleich,
4r}	.
{8b-	und
=13	=13
4a	dunk-
8g	-le
4f	Wol-
8e-	-ken
=14	=14
8a	ʒo-
4a	-gen,
4r}	.
{8g	in
=15	=15
4f	Wel-
8g	-len
4e-	ſchlug
8f	der
=16	=16
4.d	Teich.
4r}	.
==	==
!!!AGN: Liebes - Lied, Leid, Klage
!!!GTL: Liebeslieder - Liebesleid
!!!ONB: ESAC (Essen Associative Code) Database: BOEHME
!!!AMT: compound duple
!!!AIN: vox
!!!EED: Helmut Schaffrath
!!!EEV: 1.0
!!Mündl. aus Schwalbach (Kr. Wetʒlar).
!!@@COMMENT:"Melodie und Text mehrfach ads dem Rheinlande (in R. Beckers handschriftl. Liedersammlung.) [...]"
!!@@END:
!!!URL-scan: https://archive.org/details/BoehmeVtLieder1895/page/n391/mode/2up
!!!ENC: Anna Maria Matuszewska
!!!EEV: 2024/10/07
*-	*-
